public/assets/img/arrow-right-white.svg

<svg width="20" height="20" viewBox="0 0 20 20" fill="none" xmlns="http://www.w3.org/2000/svg">
<path d="M7.47719 16.1589C7.7311 16.1589 7.93292 16.0677 8.1087 15.8985L13.1022 11.0222C13.3235 10.8008 13.4277 10.5729 13.4342 10.293C13.4342 10.013 13.3301 9.77867 13.1022 9.56382L8.1087 4.68101C7.93292 4.51174 7.72459 4.42059 7.47719 4.42059C6.96938 4.42059 6.56573 4.82424 6.56573 5.32554C6.56573 5.57294 6.6699 5.80731 6.85219 5.9896L11.2793 10.293L6.85219 14.5899C6.6699 14.7722 6.56573 15.0065 6.56573 15.2539C6.56573 15.7552 6.96938 16.1589 7.47719 16.1589Z" fill="white"/>
</svg>

<svg width="20" height="20" fill="none" xmlns="http://www.w3.org/2000/svg"><path d="M7.477 16.159a.87.87 0 0 0 .632-.26l4.993-4.877c.221-.221.326-.45.332-.729 0-.28-.104-.514-.332-.73L8.11 4.682a.88.88 0 0 0-.632-.26.904.904 0 0 0-.911.905c0 .247.104.481.286.664l4.427 4.303-4.427 4.297a.939.939 0 0 0-.286.664c0 .501.403.905.911.905Z" fill="#000" fill-opacity=".4"/></svg>
